liquidity/ui/src/assets/delta-neutral.svg

<svg width="40" height="40" viewBox="0 0 40 40" fill="none" xmlns="http://www.w3.org/2000/svg">
<rect width="40" height="40" rx="20" fill="url(#paint0_linear_24274_3831)"/>
<path fill-rule="evenodd" clip-rule="evenodd" d="M30 9.99984H10L10 29.9998H30V9.99984ZM10 7.99984C8.89543 7.99984 8 8.89527 8 9.99984V29.9998C8 31.1044 8.89543 31.9998 10 31.9998H11.0002V31.9999C11.0002 32.5522 11.4479 32.9999 12.0002 32.9999H14.6668C15.2191 32.9999 15.6668 32.5522 15.6668 31.9999V31.9998H24.3335C24.3335 31.9999 24.3335 31.9999 24.3335 31.9999C24.3335 32.5522 24.7812 32.9999 25.3335 32.9999H28.0002C28.5524 32.9999 29.0002 32.5522 29.0002 31.9999C29.0002 31.9999 29.0002 31.9999 29.0002 31.9998H30C31.1046 31.9998 32 31.1044 32 29.9998V9.99984C32 8.89527 31.1046 7.99984 30 7.99984H10ZM20.0003 17.0002C18.3435 17.0002 17.0003 18.3433 17.0003 20.0002C17.0003 20.8154 17.3255 21.5547 17.8532 22.0954C17.8621 22.1037 17.8709 22.1121 17.8795 22.1207L17.8924 22.1339L17.9049 22.1471C18.4407 22.6701 19.1714 22.9942 19.9779 23.0001L20.0002 22.9998L20.0225 23.0001C20.8269 22.9943 21.556 22.6719 22.0914 22.1513C22.1009 22.141 22.1106 22.1309 22.1205 22.121C22.1305 22.111 22.1407 22.1012 22.151 22.0917C22.6766 21.5514 23.0003 20.8136 23.0003 20.0002C23.0003 19.1816 22.6725 18.4395 22.1409 17.8982C22.1342 17.892 22.1277 17.8856 22.1212 17.8791C22.1147 17.8726 22.1083 17.8661 22.1021 17.8595C21.5608 17.328 20.8188 17.0002 20.0003 17.0002ZM22.7576 15.8285C22.2328 15.4809 21.6385 15.2297 21.0002 15.1002V13.3333C21.0002 12.7811 20.5524 12.3333 20.0002 12.3333C19.4479 12.3333 19.0002 12.7811 19.0002 13.3333V15.1002C18.3618 15.2298 17.7676 15.481 17.2428 15.8287L15.9932 14.5791C15.6027 14.1885 14.9695 14.1885 14.579 14.5791C14.1885 14.9696 14.1885 15.6028 14.579 15.9933L15.8286 17.2429C15.4811 17.7676 15.23 18.3617 15.1004 19H13.3332C12.7809 19 12.3332 19.4477 12.3332 20C12.3332 20.5523 12.7809 21 13.3332 21H15.1003C15.2299 21.6384 15.4811 22.2326 15.8286 22.7574L14.5797 24.0064C14.1892 24.3969 14.1892 25.0301 14.5797 25.4206C14.9702 25.8111 15.6034 25.8111 15.9939 25.4206L17.2428 24.1717C17.7676 24.5193 18.3618 24.7705 19.0002 24.9001V26.6665C19.0002 27.2188 19.4479 27.6665 20.0002 27.6665C20.5524 27.6665 21.0002 27.2188 21.0002 26.6665V24.9002C21.6384 24.7706 22.2326 24.5195 22.7573 24.172L24.0061 25.4208C24.3966 25.8113 25.0298 25.8113 25.4203 25.4208C25.8109 25.0303 25.8109 24.3971 25.4203 24.0066L24.1717 22.7579C24.5194 22.233 24.7707 21.6386 24.9003 21H26.6672C27.2194 21 27.6672 20.5523 27.6672 20C27.6672 19.4477 27.2194 19 26.6672 19H24.9003C24.7707 18.3616 24.5194 17.7674 24.1718 17.2426L25.421 15.9935C25.8115 15.6029 25.8115 14.9698 25.421 14.5792C25.0305 14.1887 24.3973 14.1887 24.0068 14.5792L22.7576 15.8285ZM19.9998 21.3334C20.7362 21.3334 21.3332 20.7365 21.3332 20.0001C21.3332 19.2637 20.7362 18.6668 19.9998 18.6668C19.2635 18.6668 18.6665 19.2637 18.6665 20.0001C18.6665 20.7365 19.2635 21.3334 19.9998 21.3334Z" fill="white"/>
<defs>
<linearGradient id="paint0_linear_24274_3831" x1="1.09091" y1="40" x2="47.7325" y2="26.2724" gradientUnits="userSpaceOnUse">
<stop stop-color="#BE02CE"/>
<stop offset="1" stop-color="#402FC8"/>
</linearGradient>
</defs>
</svg>

<svg width="40" height="40" fill="none" viewBox="0 0 40 40" xmlns="http://www.w3.org/2000/svg">
  <rect width="40" height="40" fill="url(#a)" rx="20"/>
  <path fill="#fff" fill-rule="evenodd" d="M30 10H10v20h20zM10 8a2 2 0 0 0-2 2v20a2 2 0 0 0 2 2h1a1 1 0 0 0 1 1h2.667a1 1 0 0 0 1-1h8.667a1 1 0 0 0 1 1H28a1 1 0 0 0 1-1h1a2 2 0 0 0 2-2V10a2 2 0 0 0-2-2zm10 9a3 3 0 0 0-2.12 5.12l.012.014.013.013a3 3 0 0 0 2.073.853h.045a3 3 0 0 0 2.128-.908 3 3 0 0 0 .85-2.092 3 3 0 0 0-.899-2.14A3 3 0 0 0 20 17m2.758-1.171A5 5 0 0 0 21 15.1v-1.767a1 1 0 0 0-2 0V15.1a5 5 0 0 0-1.757.729l-1.25-1.25a1 1 0 1 0-1.414 1.414l1.25 1.25A5 5 0 0 0 15.1 19h-1.767a1 1 0 1 0 0 2H15.1c.13.638.381 1.233.729 1.757l-1.25 1.25a1 1 0 0 0 1.415 1.414l1.249-1.25a5 5 0 0 0 1.757.73v1.765a1 1 0 1 0 2 0V24.9a5 5 0 0 0 1.757-.728l1.25 1.249a1 1 0 0 0 1.413-1.414l-1.248-1.25A5 5 0 0 0 24.9 21h1.767a1 1 0 0 0 0-2H24.9a5 5 0 0 0-.728-1.757l1.249-1.25a1 1 0 0 0-1.414-1.414zM20 21.333a1.333 1.333 0 1 0 0-2.666 1.333 1.333 0 0 0 0 2.666" clip-rule="evenodd"/>
  <defs>
    <linearGradient id="a" x1="1.091" x2="47.733" y1="40" y2="26.272" gradientUnits="userSpaceOnUse">
      <stop stop-color="#BE02CE"/>
      <stop offset="1" stop-color="#402FC8"/>
    </linearGradient>
  </defs>
</svg>
